X:1
T:Title
%%score 1 2
L:1/8
Q:1/4=80
M:2/4
K:D
V:1 treble nm="Grand Piano, Soprano"
V:2 bass nm="Choir Pad, Jacob Lake, 11.11.11.11"
V:1
 [DF][DE] [EG][DF] | [DA]>[CG] [CE]2 | [CG][CE] [CB][CA] | [DF]4 | [DF][DE] [EG][DF] | %5
w: By~T.~R.~Bowden,~1899 * * *|||||
 [DA]>[CG] [CE]2 | [CE][EG] [DF][CE] | D4 | [Fd][FA] [DF][A,D] | [A,C]2 [CE]2 | [CG][CE] [CB][CA] | %11
w: ||||||
 [DF]4 | [Fd][FA] [DF][A,D] | [A,C]2 [CE]2 | [CG][CE] [CA][A,C] | [A,D]4- | [A,D]2 z2 |] %17
w: ||||||
V:2
 [D,B,][D,G,] [D,B,][D,A,] | [A,,F,]>A, [A,,A,]2 | [A,,E,][A,,A,] [A,,A,][A,,A,] | [D,A,]4 | %4
 [D,A,][D,G,] [D,B,][D,A,] | [A,,F,]>A, [A,,A,]2 | [A,,A,][A,,A,] [A,,A,][A,,G,] | [D,F,]4 | %8
 [D,D][D,D] [D,A,][D,F,] | [E,G,]2 [A,,G,]2 | [A,,A,][A,,A,] [A,,A,][A,,A,] | [D,A,]4 | %12
 [D,A,][D,A,] [D,A,][D,F,] | [E,G,]2 [A,,G,]2 | [A,,A,][A,,A,] [A,,G,][A,,G,] | [D,F,]4- | %16
 [D,F,]2 z2 |] %17

